X:1
T:Isaac Watts. 1719 (Psalm 95, Part 1)           86. 86. (C. M.) 
T:D Major          Samuel Holyoke, 1791 
T:Portland
T:Transcribed from Harmonia Americana , 1791 . 
%%score [ 1 2 3 ]
L:1/8
Q:1/4=140
M:3/4
K:D
V:1 treble nm="Tr." snm="Tr."
V:2 treble-8 nm="T." snm="T."
V:3 bass nm="B." snm="B."
V:1
"^1. Sing  to   the  Lord  Je–ho–vah's name, And in his strength rejoice;  When his  salvation  is our theme, Ex  – al      –       ted\n" F2 | %1
 F4 F2 | G4 A2 | d4 e2 | f4 a2 | d4 e2 | A2 ^G4 | A4 G2 | F4 D2 | A4 B2 | c4 d2 | c4 d>e | %12
 (f3 e) d2 | %13
"^1. be           our  voice.        With   thanks     ap  –  proach      his    aw     –    ful  sight,  And psalms of honor sing;  The  Lord's  a\n" (d>e f2) e2 | %14
 f6 | z4 d2 | (B>A G2) E2 | (^G>A B2) c2 | B4 B2 | c4 A2 | B4 A2 | B4 B2 | c4 d2 | (F>G F2) E2 | %24
"^1. God            of       bound   –   less    might,  The  whole  cre – a     –     tion's  King,   The   whole    cre  – a – tion's     King.\n" (D>E F2) A2 | %25
 (A2 B2) e2 | A4 A2 | B4 E2 | (G2 A2) B2 | c4 A2 | (d2 e2) f2 | d2 c4 | d6 |] %33
V:2
"^2. Let   princes  hear, let angels know, How mean their natures seem, Those gods on high and gods below, When  once     com –\n" F2 | %1
 (A2 d2) c2 | B4 A2 | (B2 A2) G2 | F4 A2 | B4 c2 | dc B4 | A4 A2 | (B2 A2) B2 | c4 d2 | e4 f2 | %11
 e4 d2 | (c>B A2) B2 | %13
"^2. – pared    with   him.        Earth,   with       its     ca    –   verns    dark         and  deep, Lies in his spacious hand;    He  fixed  the\n" (A2 d2) c2 | %14
 d6 | z4 A2 | (d>c B2) A2 | B4 A2 | (G2 F>E) D2 | E4 E2 | F4 F2 | G4 ^G2 | A4 A2 | (A>B A2) G2 | %24
"^2.  seas            what   bounds         to     keep,   And  where  the   hills        must  stand,   And  where     the  hills  must    stand.\n" (F>A d2) e2 | %25
 (f>e d2) c2 | d4 d2 | d4 c2 | (d2 A2) ^G2 | A4 A2 | B4 F2 | G2 E4 | D6 |] %33
V:3
"^3. Come, and with humble  souls adore, Come, kneel before his face;  O may the creatures of his power  Be     child    –     ren\n" D,2 | %1
 D,4 D,2 | E,4 F,2 | (G,2 F,2) E,2 | D,4 C,2 | B,,4 A,,2 | D,2 E,4 | A,,4 C,2 | D,4 G,2 | F,4 B,2 | %10
 A,4 D2 | A,4 B,2 | F,4 G,2 | %13
"^3. of           his   grace!          Now  is             the  time;           he     bends       his   ear, And waits for your request; Come,  lest  he\n" (F,>E, D,2) A,2 | %14
 D,6 | z4 D,2 | (D,2 E,2) A,2 | E,4 A,,2 | B,,4 B,,2 | A,,4 C,2 | B,,4 D,2 | C,4 B,,2 | A,,4 D,2 | %23
 D,4 A,,2 | %24
"^3. rouse          his     wrath          and   swear,    Ye   shall   not    see            my    rest,      Ye    shall        not    see   my      rest.\n" D,4 C,2 | %25
 B,,4 A,,2 | D,4 F,2 | G,4 A,2 | (G,2 F,2) E,2 | A,,4 F,2 | (G,>F, E,2) D,2 | G,,2 A,,4 | D,6 |] %33

